_site/images/icons/bill-icon.svg

<svg height="33" viewBox="0 0 33 33" width="33" xmlns="http://www.w3.org/2000/svg"><path d="m12.1073173 13.7280137h4.035764c.8915564 0 1.6143056-.7227492 1.6143056-1.6143056 0-.8915563-.7227492-1.6143056-1.6143056-1.6143056h-1.6143056v-.80715275c0-.89155636-.7227492-1.61430559-1.6143056-1.61430559-.8915563 0-1.6143056.72274923-1.6143056 1.61430559v.88786805c-2.03192057.4125937-3.42060751 2.2977497-3.21223477 4.3606398.20837274 2.0628902 1.94600137 3.6322566 4.01938757 3.6301729h1.6143056c.4457782 0 .8071528.3613746.8071528.8071528s-.3613746.8071528-.8071528.8071528h-4.03576395c-.89155636 0-1.61430559.7227492-1.61430559 1.6143056 0 .8915563.72274923 1.6143056 1.61430559 1.6143056h1.61430555v.8071528c0 .8915563.7227493 1.6143055 1.6143056 1.6143055.8915564 0 1.6143056-.7227492 1.6143056-1.6143055v-.8878681c2.0319206-.4125937 3.4206076-2.2977497 3.2122348-4.3606398-.2083727-2.0628902-1.9460013-3.6322566-4.0193876-3.6301729h-1.6143056c-.4457781 0-.8071528-.3613746-.8071528-.8071528s.3613747-.8071528.8071528-.8071528zm18.5645143 2.4214584h-4.8429168v-14.5287503c.0022988-.57902681-.3056942-1.11493474-.8071527-1.40444586-.4994679-.28836792-1.1148378-.28836792-1.6143056 0l-4.8429168 2.77660561-4.8429168-2.77660561c-.4994679-.28836792-1.1148377-.28836792-1.6143056 0l-4.84291673 2.77660561-4.84291677-2.77660561c-.49946789-.28836792-1.1148377-.28836792-1.61430559 0-.50145851.28951112-.80945158.82541905-.80715279 1.40444586v25.8288894c0 2.6746691 2.16824769 4.8429168 4.84291676 4.8429168h22.60027822c2.6746691 0 4.8429168-2.1682477 4.8429168-4.8429168v-9.6858335c0-.8915564-.7227492-1.6143056-1.6143056-1.6143056zm-25.82888942 12.9144447c-.89155635 0-1.61430558-.7227492-1.61430558-1.6143056v-23.03614073l3.22861117 1.84030837c.50569032.26412658 1.10861527.26412658 1.61430559 0l4.84291674-2.77660561 4.8429168 2.77660561c.5056903.26412658 1.1086153.26412658 1.6143056 0l3.2286112-1.84030837v23.03614073c.004366.5507095.1026334 1.0966398.290575 1.6143056zm24.21458382-1.6143056c0 .8915564-.7227492 1.6143056-1.6143056 1.6143056-.8915563 0-1.6143056-.7227492-1.6143056-1.6143056v-8.0715279h3.2286112z" fill="#0b7a76"/></svg>

<?xml version="1.0" encoding="UTF-8"?>
<svg width="33px" height="33px" viewBox="0 0 33 33" version="1.1" xmlns="http://www.w3.org/2000/svg" xmlns:xlink="http://www.w3.org/1999/xlink">
    <!-- Generator: Sketch 52.6 (67491) - http://www.bohemiancoding.com/sketch -->
    <title>bill</title>
    <desc>Created with Sketch.</desc>
    <g id="Landing-page" stroke="none" stroke-width="1" fill="none" fill-rule="evenodd">
        <g id="1.1--Home" transform="translate(-970.000000, -5162.000000)" fill="#0B7A76" fill-rule="nonzero">
            <g id="Benefit" transform="translate(92.000000, 4663.000000)">
                <g id="Group-11" transform="translate(78.000000, 498.000000)">
                    <g id="bill" transform="translate(800.000000, 1.000000)">
                        <path d="M12.1073173,13.7280137 L16.1430813,13.7280137 C17.0346377,13.7280137 17.7573869,13.0052645 17.7573869,12.1137081 C17.7573869,11.2221518 17.0346377,10.4994025 16.1430813,10.4994025 L14.5287757,10.4994025 L14.5287757,9.69224975 C14.5287757,8.80069339 13.8060265,8.07794416 12.9144701,8.07794416 C12.0229138,8.07794416 11.3001645,8.80069339 11.3001645,9.69224975 L11.3001645,10.5801178 C9.26824393,10.9927115 7.87955699,12.8778675 8.08792973,14.9407576 C8.29630247,17.0036478 10.0339311,18.5730142 12.1073173,18.5709305 L13.7216229,18.5709305 C14.1674011,18.5709305 14.5287757,18.9323051 14.5287757,19.3780833 C14.5287757,19.8238615 14.1674011,20.1852361 13.7216229,20.1852361 L9.68585895,20.1852361 C8.79430259,20.1852361 8.07155336,20.9079853 8.07155336,21.7995417 C8.07155336,22.691098 8.79430259,23.4138473 9.68585895,23.4138473 L11.3001645,23.4138473 L11.3001645,24.2210001 C11.3001645,25.1125564 12.0229138,25.8353056 12.9144701,25.8353056 C13.8060265,25.8353056 14.5287757,25.1125564 14.5287757,24.2210001 L14.5287757,23.333132 C16.5606963,22.9205383 17.9493833,21.0353823 17.7410105,18.9724922 C17.5326378,16.909602 15.7950092,15.3402356 13.7216229,15.3423193 L12.1073173,15.3423193 C11.6615392,15.3423193 11.3001645,14.9809447 11.3001645,14.5351665 C11.3001645,14.0893883 11.6615392,13.7280137 12.1073173,13.7280137 Z M30.6718316,16.1494721 L25.8289148,16.1494721 L25.8289148,1.6207218 C25.8312136,1.04169499 25.5232206,0.505787063 25.0217621,0.21627594 C24.5222942,-0.0720919798 23.9069243,-0.0720919798 23.4074565,0.21627594 L18.5645397,2.99288155 L13.7216229,0.21627594 C13.222155,-0.0720919798 12.6067852,-0.0720919798 12.1073173,0.21627594 L7.26440057,2.99288155 L2.4214838,0.21627594 C1.92201591,-0.0720919798 1.3066461,-0.0720919798 0.807178211,0.21627594 C0.305719697,0.505787063 -0.00227336509,1.04169499 2.54163074e-05,1.6207218 L2.54163074e-05,27.4496112 C2.54163074e-05,30.1242803 2.16827311,32.292528 4.84294218,32.292528 L27.4432204,32.292528 C30.1178895,32.292528 32.2861372,30.1242803 32.2861372,27.4496112 L32.2861372,17.7637777 C32.2861372,16.8722213 31.563388,16.1494721 30.6718316,16.1494721 Z M4.84294218,29.0639168 C3.95138583,29.0639168 3.2286366,28.3411676 3.2286366,27.4496112 L3.2286366,4.41347047 L6.45724777,6.25377884 C6.96293809,6.51790542 7.56586304,6.51790542 8.07155336,6.25377884 L12.9144701,3.47717323 L17.7573869,6.25377884 C18.2630772,6.51790542 18.8660022,6.51790542 19.3716925,6.25377884 L22.6003037,4.41347047 L22.6003037,27.4496112 C22.6046697,28.0003207 22.7029371,28.546251 22.8908787,29.0639168 L4.84294218,29.0639168 Z M29.057526,27.4496112 C29.057526,28.3411676 28.3347768,29.0639168 27.4432204,29.0639168 C26.5516641,29.0639168 25.8289148,28.3411676 25.8289148,27.4496112 L25.8289148,19.3780833 L29.057526,19.3780833 L29.057526,27.4496112 Z" id="Shape"></path>
                    </g>
                </g>
            </g>
        </g>
    </g>
</svg>
